X: 1
T: Old Simon the King   (D)
R: slip-jig
Z: 2015 John Chambers <jc:trillian.mit.edu>
B: Barnes I p.109
M: 6/8
L: 1/8
K: D	% or Amix or G lydian
A |\
"G"B>cd d>ed "D"d2A | "G"B>cd d>cB "A"c2c |\
"G"d>BB B>AG B>cd | "A"e2d c2B A2 :|
|: b |\
"D"a2g f2e d2b | "D"a>fd d>ef "Em"g2f |\
"G"g2B B>AG B>cd | "A"e2d c2B A2 :|
